svg/part/heartbeat_2_line.svg

<?xml version="1.0" encoding="UTF-8"?>
<svg width="24px" height="24px" viewBox="0 0 24 24" version="1.1" xmlns="http://www.w3.org/2000/svg" xmlns:xlink="http://www.w3.org/1999/xlink">
    <title>heartbeat_2_line</title>
    <g id="Icon" stroke="none" stroke-width="1" fill="none" fill-rule="evenodd">
        <g id="Part" transform="translate(-432.000000, -192.000000)">
            <g id="heartbeat_2_line" transform="translate(432.000000, 192.000000)">
                <path d="M24,0 L24,24 L0,24 L0,0 L24,0 Z M12.5935,23.2578 L12.5819,23.2595 L12.5109,23.295 L12.4919,23.2987 L12.4767,23.295 L12.4057,23.2595 C12.3958,23.2564 12.387,23.259 12.3821,23.2649 L12.378,23.2758 L12.3609,23.7031 L12.3659,23.7235 L12.3769,23.7357 L12.4805,23.8097 L12.4953,23.8136 L12.5071,23.8097 L12.6107,23.7357 L12.6233,23.7197 L12.6267,23.7031 L12.6096,23.2758 C12.6076,23.2657 12.601,23.2593 12.5935,23.2578 Z M12.8584,23.1453 L12.8445,23.1473 L12.6598,23.2397 L12.6499,23.2499 L12.6472,23.2611 L12.6651,23.6906 L12.6699,23.7034 L12.6784,23.7105 L12.8793,23.8032 C12.8914,23.8069 12.9022,23.803 12.9078,23.7952 L12.9118,23.7812 L12.8777,23.1665 C12.8753,23.1546 12.8674,23.147 12.8584,23.1453 Z M12.143,23.1473 C12.1332,23.1424 12.1222,23.1453 12.1156,23.1526 L12.1099,23.1665 L12.0758,23.7812 C12.0751,23.7927 12.0828,23.8019 12.0926,23.8046 L12.1083,23.8032 L12.3092,23.7105 L12.3186,23.7024 L12.3225,23.6906 L12.3404,23.2611 L12.3372,23.2485 L12.3278,23.2397 L12.143,23.1473 Z" id="MingCute" fill-rule="nonzero"></path>
                <path d="M12.0000003,4.33872 C14.0719,2.65344 16.5339,2.65956 18.4938,3.80149 C20.5893,5.02239 22.0628,7.50113 21.9979,10.3933 C21.9190225,13.9121725 19.2460795,17.0274096 14.6747716,19.8171456 L14.3194,20.0311 C13.9877,20.2288 13.657,20.4291 13.3125,20.6041 C12.907,20.8101 12.4627,21.0002 12.0000003,21.0002 C11.5373,21.0002 11.093,20.8101 10.6874,20.6041 C10.4578,20.4874333 10.2342889,20.3595222 10.0125022,20.2286333 L9.68057,20.0311 C4.89274,17.1869 2.083,14.0024 2.00206,10.3933 C1.9372,7.50113 3.41065,5.02239 5.50615,3.80149 C7.46612,2.65956 9.92814,2.65344 12.0000003,4.33872 Z M9.93018,10.3759 L8.89442,12.4474 C8.72503,12.7862 8.37877,13.0002 8,13.0002 L4.77564,13.0002 C5.70072875,14.6461375 7.48874875,16.3480057 10.3259632,18.0848575 L10.702,18.3116 C10.9959,18.4866 11.288,18.666 11.5932,18.821 C11.7236,18.8872 11.8583,18.9548 12,18.9942 C12.1417,18.9548 12.2764,18.8872 12.4068,18.821 C12.6102667,18.7176667 12.8079111,18.6034889 13.0041481,18.487 L13.298,18.3116 C16.3541,16.4961 18.259,14.7177 19.2244,13.0002 L15.5352,13.0002 L13.832,15.5549 C13.6285,15.8603 13.274,16.0296 12.9086,15.996 C12.5431,15.9625 12.2254,15.7315 12.0809,15.3941 L9.93018,10.3759 Z M17.487,5.52958 C16.0933,4.71757 14.3513,4.74646 12.8427,6.27186 C12.3801,6.73961 11.6199,6.73961 11.1573,6.27186 C9.64871,4.74646 7.90669,4.71757 6.51299,5.52958 C5.06856,6.37114 3.95242,8.15771 4.00156,10.3485 C4.00478667,10.4925 4.01434667,10.6370778 4.03038222,10.7821741 L4.05931,11.0002 L7.38196,11.0002 L9.10557,7.55301 C9.27971,7.20474 9.64016,6.98922 10.0294,7.00066 C10.3753556,7.01082889 10.6881259,7.19867284 10.8610269,7.49165501 L10.9191,7.60631 L13.1919,12.9095 L14.1679,11.4455 C14.3302125,11.202075 14.5895297,11.0437109 14.8758433,11.0079234 L14.9999979,11.0002 L19.9407,11.0002 C19.9745,10.7818 19.9936,10.5645 19.9984,10.3485 C20.0476,8.15771 18.9314,6.37114 17.487,5.52958 Z" id="形状" fill="#09244B"></path>
            </g>
        </g>
    </g>
</svg>

<svg xmlns="http://www.w3.org/2000/svg" width="24" height="24"><g fill="none" fill-rule="evenodd"><path d="M24 0v24H0V0h24ZM12.594 23.258l-.012.002-.071.035-.02.004-.014-.004-.071-.036c-.01-.003-.019 0-.024.006l-.004.01-.017.428.005.02.01.013.104.074.015.004.012-.004.104-.074.012-.016.004-.017-.017-.427c-.002-.01-.009-.017-.016-.018Zm.264-.113-.014.002-.184.093-.01.01-.003.011.018.43.005.012.008.008.201.092c.012.004.023 0 .029-.008l.004-.014-.034-.614c-.003-.012-.01-.02-.02-.022Zm-.715.002a.023.023 0 0 0-.027.006l-.006.014-.034.614c0 .012.007.02.017.024l.015-.002.201-.093.01-.008.003-.011.018-.43-.003-.012-.01-.01-.184-.092Z"/><path fill="#09244B" d="M12 4.339c2.072-1.686 4.534-1.68 6.494-.538 2.095 1.221 3.569 3.7 3.504 6.592-.079 3.52-2.752 6.634-7.323 9.424l-.356.214c-.331.198-.662.398-1.007.573-.405.206-.85.396-1.312.396-.463 0-.907-.19-1.313-.396-.23-.117-.453-.244-.674-.375l-.332-.198c-4.788-2.844-7.598-6.029-7.679-9.638-.065-2.892 1.409-5.37 3.504-6.592C7.466 2.66 9.928 2.653 12 4.34Zm-2.07 6.037-1.036 2.071A1 1 0 0 1 8 13H4.776c.925 1.646 2.713 3.348 5.55 5.085l.376.227c.294.175.586.354.891.509.13.066.265.134.407.173.142-.04.276-.107.407-.173.203-.103.4-.218.597-.334l.294-.175c3.056-1.816 4.961-3.594 5.926-5.312h-3.689l-1.703 2.555a1 1 0 0 1-1.751-.16l-2.15-5.02Zm7.557-4.846c-1.394-.812-3.136-.784-4.644.742a1.188 1.188 0 0 1-1.686 0C9.65 4.746 7.907 4.718 6.513 5.53c-1.444.841-2.56 2.628-2.511 4.818.003.144.012.29.028.434l.03.218h3.322l1.724-3.447a1 1 0 0 1 1.755-.061l.058.114 2.273 5.304.976-1.465a1 1 0 0 1 .708-.437L15 11h4.94a4.98 4.98 0 0 0 .058-.652c.05-2.19-1.067-3.977-2.511-4.818Z"/></g></svg>
